img/icons/this/search.svg

<svg width="39" height="40" viewBox="0 0 39 40" fill="none" xmlns="http://www.w3.org/2000/svg">
<path d="M28.797 25.858C31.1174 22.5544 32.1567 18.4585 31.7069 14.3897C31.2572 10.321 29.3515 6.57939 26.3713 3.9136C23.391 1.2478 19.5559 -0.145638 15.6332 0.0120615C11.7106 0.169761 7.98962 1.86697 5.21481 4.76413C2.44 7.66129 0.815969 11.5448 0.667629 15.6376C0.519289 19.7304 1.85758 23.7307 4.41476 26.8382C6.97193 29.9458 10.5594 31.9313 14.4595 32.3977C18.3595 32.864 22.2845 31.7767 25.4492 29.3534H25.4468C25.5187 29.4534 25.5954 29.5484 25.6817 29.6409L34.9077 39.2669C35.3571 39.7361 35.9667 39.9998 36.6023 40C37.238 40.0002 37.8478 39.737 38.2974 39.2682C38.7471 38.7994 38.9998 38.1634 39.0001 37.5001C39.0003 36.8369 38.748 36.2007 38.2986 35.7316L29.0726 26.1056C28.9869 26.0151 28.8948 25.9315 28.797 25.8555V25.858ZM29.4152 16.247C29.4152 18.0529 29.0743 19.8411 28.412 21.5095C27.7496 23.1779 26.7788 24.6938 25.5549 25.9708C24.331 27.2477 22.878 28.2606 21.2789 28.9517C19.6799 29.6428 17.966 29.9985 16.2351 29.9985C14.5043 29.9985 12.7904 29.6428 11.1913 28.9517C9.59224 28.2606 8.13928 27.2477 6.91539 25.9708C5.69151 24.6938 4.72067 23.1779 4.0583 21.5095C3.39594 19.8411 3.05503 18.0529 3.05503 16.247C3.05503 12.5999 4.44364 9.10221 6.91539 6.52332C9.38714 3.94443 12.7396 2.49563 16.2351 2.49563C19.7307 2.49563 23.0831 3.94443 25.5549 6.52332C28.0266 9.10221 29.4152 12.5999 29.4152 16.247Z" fill="#45594F"/>
</svg>

<svg width="39" height="40" fill="none" xmlns="http://www.w3.org/2000/svg"><path d="M28.797 25.858c2.32-3.304 3.36-7.4 2.91-11.468-.45-4.069-2.355-7.81-5.336-10.476-2.98-2.666-6.815-4.06-10.738-3.902C11.711.17 7.99 1.867 5.215 4.764 2.44 7.661.816 11.544.668 15.638c-.149 4.092 1.19 8.093 3.747 11.2 2.557 3.108 6.144 5.093 10.045 5.56 3.9.466 7.825-.621 10.99-3.045h-.003c.072.1.148.195.235.288l9.226 9.626c.45.47 1.059.733 1.694.733.636 0 1.246-.263 1.695-.732.45-.469.703-1.105.703-1.768s-.252-1.3-.701-1.768l-9.226-9.626a2.45 2.45 0 00-.276-.25v.002zm.618-9.611c0 1.806-.34 3.594-1.003 5.262a13.807 13.807 0 01-2.857 4.462 13.159 13.159 0 01-4.276 2.98 12.705 12.705 0 01-5.044 1.047 12.71 12.71 0 01-5.044-1.046 13.159 13.159 0 01-4.276-2.981 13.807 13.807 0 01-2.857-4.462 14.27 14.27 0 01-1.003-5.262c0-3.647 1.389-7.145 3.86-9.724 2.472-2.579 5.825-4.027 9.32-4.027 3.496 0 6.848 1.448 9.32 4.027 2.472 2.58 3.86 6.077 3.86 9.724z" fill="#45594F"/></svg>
